report_00007_2020-12-11T15:55:29.892Z/largest-contentful-paint/comparison/line/5_vs_6.svg

<svg width="640" height="500" xmlns="http://www.w3.org/2000/svg" xmlns:xlink="http://www.w3.org/1999/xlink"><path fill="#fff" d="M0 0h640v500H0z"/><defs><path id="d" stroke-width=".222" stroke="currentColor" d="M-1-1h2v2h-2z"/><path id="b" stroke-width=".222" stroke="currentColor" d="M0-1.33l-1.33 2h2.66z"/><path id="f" stroke-width=".222" stroke="currentColor" d="M0 1.33L1.265.411.782-1.067l-1.564-.009-.483 1.487z"/><use xlink:href="#b" id="c" stroke="currentColor" transform="rotate(180)"/><use xlink:href="#d" id="e" stroke="currentColor" transform="rotate(45)"/><circle id="a" stroke-width=".222" stroke="currentColor" cx="0" cy="0" r="1"/></defs><g fill="none" color="#000" stroke="currentColor"><path stroke="#000" d="M62.2 354h9m543.8 0h-9"/><text transform="translate(53.9 357.9)" stroke="none" fill="#000" font-family="Arial" font-size="12" text-anchor="end"><tspan>6500</tspan></text></g><g fill="none" color="#000" stroke="currentColor"><path stroke="#000" d="M62.2 305h9m543.8 0h-9"/><text transform="translate(53.9 308.9)" stroke="none" fill="#000" font-family="Arial" font-size="12" text-anchor="end"><tspan>7000</tspan></text></g><g fill="none" color="#000" stroke="currentColor"><path stroke="#000" d="M62.2 255.9h9m543.8 0h-9"/><text transform="translate(53.9 259.8)" stroke="none" fill="#000" font-family="Arial" font-size="12" text-anchor="end"><tspan>7500</tspan></text></g><g fill="none" color="#000" stroke="currentColor"><path stroke="#000" d="M62.2 206.9h9m543.8 0h-9"/><text transform="translate(53.9 210.8)" stroke="none" fill="#000" font-family="Arial" font-size="12" text-anchor="end"><tspan>8000</tspan></text></g><g fill="none" color="#000" stroke="currentColor"><path stroke="#000" d="M62.2 157.9h9m543.8 0h-9"/><text transform="translate(53.9 161.8)" stroke="none" fill="#000" font-family="Arial" font-size="12" text-anchor="end"><tspan>8500</tspan></text></g><g fill="none" color="#000" stroke="currentColor"><path stroke="#000" d="M62.2 108.9h9m543.8 0h-9"/><text transform="translate(53.9 112.8)" stroke="none" fill="#000" font-family="Arial" font-size="12" text-anchor="end"><tspan>9000</tspan></text></g><g fill="none" color="#000" stroke="currentColor"><path stroke="#000" d="M62.2 59.9h9m543.8 0h-9"/><text transform="translate(53.9 63.8)" stroke="none" fill="#000" font-family="Arial" font-size="12" text-anchor="end"><tspan>9500</tspan></text></g><g fill="none" color="#000" stroke="currentColor"><path stroke="#000" d="M62.2 392v-9m0-364.9v9"/><text transform="translate(62.2 413.9)" stroke="none" fill="#000" font-family="Arial" font-size="12" text-anchor="middle"><tspan>0</tspan></text></g><g fill="none" color="#000" stroke="currentColor"><path stroke="#000" d="M118 392v-9m0-364.9v9"/><text transform="translate(118 413.9)" stroke="none" fill="#000" font-family="Arial" font-size="12" text-anchor="middle"><tspan>10</tspan></text></g><g fill="none" color="#000" stroke="currentColor"><path stroke="#000" d="M173.9 392v-9m0-364.9v9"/><text transform="translate(173.9 413.9)" stroke="none" fill="#000" font-family="Arial" font-size="12" text-anchor="middle"><tspan>20</tspan></text></g><g fill="none" color="#000" stroke="currentColor"><path stroke="#000" d="M229.7 392v-9m0-364.9v9"/><text transform="translate(229.7 413.9)" stroke="none" fill="#000" font-family="Arial" font-size="12" text-anchor="middle"><tspan>30</tspan></text></g><g fill="none" color="#000" stroke="currentColor"><path stroke="#000" d="M285.6 392v-9m0-364.9v9"/><text transform="translate(285.6 413.9)" stroke="none" fill="#000" font-family="Arial" font-size="12" text-anchor="middle"><tspan>40</tspan></text></g><g fill="none" color="#000" stroke="currentColor"><path stroke="#000" d="M341.4 392v-9m0-364.9v9"/><text transform="translate(341.4 413.9)" stroke="none" fill="#000" font-family="Arial" font-size="12" text-anchor="middle"><tspan>50</tspan></text></g><g fill="none" color="#000" stroke="currentColor"><path stroke="#000" d="M397.2 392v-9m0-364.9v9"/><text transform="translate(397.2 413.9)" stroke="none" fill="#000" font-family="Arial" font-size="12" text-anchor="middle"><tspan>60</tspan></text></g><g fill="none" color="#000" stroke="currentColor"><path stroke="#000" d="M453.1 392v-9m0-364.9v9"/><text transform="translate(453.1 413.9)" stroke="none" fill="#000" font-family="Arial" font-size="12" text-anchor="middle"><tspan>70</tspan></text></g><g fill="none" color="#000" stroke="currentColor"><path stroke="#000" d="M508.9 392v-9m0-364.9v9"/><text transform="translate(508.9 413.9)" stroke="none" fill="#000" font-family="Arial" font-size="12" text-anchor="middle"><tspan>80</tspan></text></g><g fill="none" color="#000" stroke="currentColor"><path stroke="#000" d="M564.7 392v-9m0-364.9v9"/><text transform="translate(564.7 413.9)" stroke="none" fill="#000" font-family="Arial" font-size="12" text-anchor="middle"><tspan>90</tspan></text></g><path stroke="#000" d="M62.2 18.1V392H615V18.1H62.2z" fill="none" color="#000"/><text transform="translate(437.8 431.9)" stroke="none" fill="#000" font-family="Arial" font-size="12" text-anchor="end" color="#000"><tspan>pages+cached+noexternal</tspan></text><path stroke="#9400D3" d="M446.1 428h42.2M62.2 34.8l5.6 73.1 5.6-73.1 5.6 80.7 5.5-7.7 5.6-.2 5.6 7.7 5.6-81.1 5.6-7.1 5.6.7 5.5 6.1 5.6-7.2 5.6 81 5.6.6 5.6 7.8 5.6 1 5.5-82.6 5.6-9.1 5.6 3.5 5.6 4.6 5.6 1.8 5.6-9.7L185 108l5.6 8.1 5.6-81.7 5.6 80.6 5.6-80.4 5.6.1 5.5-1.5 5.6 83.9 5.6-9.1 5.6 7 5.6-7.1 5.6 7.7 5.6-89 5.5 88.8 5.6-80.2 5.6 72.5 5.6.6 5.6-74 5.6 74.6 5.5-73.8 5.6 80.3 5.6.3 5.6-6.3 5.6-1 5.6-75 5.5 83 5.6.4 5.6-8.4 5.6-74.2 5.6-.1 5.6 80.9 5.5-87.2 5.6 5.6 5.6 75.8 5.6-75.5 5.6 81.3 5.6-88.1 5.5 7.1 5.6 81.9 5.6-89.6 5.6-1 5.6 88.9 5.6 2.9 5.5-89.7 5.6 80.1 5.6-73.9 5.6 82.3 5.6-80.9 5.6 74.1 5.6.4 5.5-74.9 5.6 81.3 5.6-.4 5.6-80.1 5.6-9.1 5.6 89.1 5.5-6.7 5.6-.5 5.6-81.5 5.6.8 5.6 88 5.6-6.2 5.5-2.1 5.6-79.2 5.6 80.5 5.6-73.9 5.6 81.2 5.6-7.1 5.5 6.6 5.6.9 5.6-.5 5.6-6.8 5.6-.1 5.6 6.9 5.5-7.8 5.6-73.3 5.6-7.7L615 108" fill="none" color="#000"/><text transform="translate(437.8 449.9)" stroke="none" fill="#000" font-family="Arial" font-size="12" text-anchor="end" color="#000"><tspan>pages+cached+noexternal+nofonts</tspan></text><path stroke="#009E73" d="M446.1 446h42.2M62.2 377.2l5.6-7.8 5.6-73.6 5.6 81.4 5.5.2 5.6-7.8 5.6.6 5.6-73 5.6 80 5.6-7.6 5.5-80.5 5.6 80.7 5.6.2 5.6-.1 5.6-73.7 5.6 73.5 5.5-81.2 5.6.1 5.6.1 5.6 82.3 5.6-1.2 5.6 6.5 5.5-7.5 5.6-79.4 5.6 6.8 5.6 81.4 5.6-88.6 5.6 81 5.5-.3 5.6-80.9 5.6 80.9 5.6.7 5.6-81.2 5.6 88.1 5.6-7 5.5-.4h5.6l5.6 7.2 5.6-7.8 5.6.1 5.6.3 5.5-.1 5.6 1 5.6-74.5 5.6-.3 5.6 74.5 5.6-.5 5.5-.6 5.6.7 5.6.6 5.6-.2 5.6-74.1 5.6 73.6 5.5 7.5 5.6-6.2 5.6-81.4 5.6 80.7 5.6.5 5.6-1.3 5.5.4 5.6 7.4 5.6-7.7 5.6-.3 5.6.5h5.6l5.5.7 5.6-.1 5.6-82.2 5.6 81.2 5.6-73.1 5.6 73.5 5.6-.2 5.5-81.1 5.6 89 5.6-6.7 5.6-75.2 5.6 75.1 5.6 14 5.5-14.8 5.6-73.8 5.6-8 5.6.8 5.6 81.1 5.6-.1 5.5 13.9 5.6-14.4 5.6 1.4 5.6-1.1 5.6-80.8 5.6 81 5.5-.3 5.6-.2 5.6-73.8 5.6 73.7 5.6.4 5.6.3 5.5-81.3 5.6 88.6 5.6-88.8 5.6 88.2" fill="none" color="#000"/><text transform="translate(437.8 467.9)" stroke="none" fill="#000" font-family="Arial" font-size="12" text-anchor="end" color="#000"><tspan>score p10=2500</tspan></text><path stroke="#56B4E9" d="M446.1 464h42.2" fill="none" color="#000"/><g><text transform="translate(437.8 485.9)" stroke="none" fill="#000" font-family="Arial" font-size="12" text-anchor="end" color="#000"><tspan>score median=4000</tspan></text><path stroke="#E69F00" d="M446.1 482h42.2" fill="none" color="#000"/></g><g fill="none" color="#000" stroke="currentColor"><path stroke="#000" d="M62.2 18.1V392H615V18.1H62.2z"/></g></svg>

<?xml version="1.0" encoding="utf-8"  standalone="no"?>
<svg 
 width="640" height="500"
 viewBox="0 0 640 500"
 xmlns="http://www.w3.org/2000/svg"
 xmlns:xlink="http://www.w3.org/1999/xlink"
>

<title>Gnuplot</title>
<desc>Produced by GNUPLOT 5.4 patchlevel 0 </desc>

<g id="gnuplot_canvas">

<rect x="0" y="0" width="640" height="500" fill="#ffffff"/>
<defs>

	<circle id='gpDot' r='0.5' stroke-width='0.5' stroke='currentColor'/>
	<path id='gpPt0' stroke-width='0.222' stroke='currentColor' d='M-1,0 h2 M0,-1 v2'/>
	<path id='gpPt1' stroke-width='0.222' stroke='currentColor' d='M-1,-1 L1,1 M1,-1 L-1,1'/>
	<path id='gpPt2' stroke-width='0.222' stroke='currentColor' d='M-1,0 L1,0 M0,-1 L0,1 M-1,-1 L1,1 M-1,1 L1,-1'/>
	<rect id='gpPt3' stroke-width='0.222' stroke='currentColor' x='-1' y='-1' width='2' height='2'/>
	<rect id='gpPt4' stroke-width='0.222' stroke='currentColor' fill='currentColor' x='-1' y='-1' width='2' height='2'/>
	<circle id='gpPt5' stroke-width='0.222' stroke='currentColor' cx='0' cy='0' r='1'/>
	<use xlink:href='#gpPt5' id='gpPt6' fill='currentColor' stroke='none'/>
	<path id='gpPt7' stroke-width='0.222' stroke='currentColor' d='M0,-1.33 L-1.33,0.67 L1.33,0.67 z'/>
	<use xlink:href='#gpPt7' id='gpPt8' fill='currentColor' stroke='none'/>
	<use xlink:href='#gpPt7' id='gpPt9' stroke='currentColor' transform='rotate(180)'/>
	<use xlink:href='#gpPt9' id='gpPt10' fill='currentColor' stroke='none'/>
	<use xlink:href='#gpPt3' id='gpPt11' stroke='currentColor' transform='rotate(45)'/>
	<use xlink:href='#gpPt11' id='gpPt12' fill='currentColor' stroke='none'/>
	<path id='gpPt13' stroke-width='0.222' stroke='currentColor' d='M0,1.330 L1.265,0.411 L0.782,-1.067 L-0.782,-1.076 L-1.265,0.411 z'/>
	<use xlink:href='#gpPt13' id='gpPt14' fill='currentColor' stroke='none'/>
	<filter id='textbox' filterUnits='objectBoundingBox' x='0' y='0' height='1' width='1'>
	  <feFlood flood-color='#FFFFFF' flood-opacity='1' result='bgnd'/>
	  <feComposite in='SourceGraphic' in2='bgnd' operator='atop'/>
	</filter>
	<filter id='greybox' filterUnits='objectBoundingBox' x='0' y='0' height='1' width='1'>
	  <feFlood flood-color='lightgrey' flood-opacity='1' result='grey'/>
	  <feComposite in='SourceGraphic' in2='grey' operator='atop'/>
	</filter>
</defs>
<g fill="none" color="#FFFFFF" stroke="black" stroke-width="1.00" stroke-linecap="butt" stroke-linejoin="miter">
</g>
<g fill="none" color="black" stroke="currentColor" stroke-width="1.00" stroke-linecap="butt" stroke-linejoin="miter">
	<path stroke='black'  d='M62.2,354.0 L71.2,354.0 M615.0,354.0 L606.0,354.0  '/>	<g transform="translate(53.9,357.9)" stroke="none" fill="black" font-family="Arial" font-size="12.00"  text-anchor="end">
		<text><tspan font-family="Arial" > 6500</tspan></text>
	</g>
</g>
<g fill="none" color="black" stroke="currentColor" stroke-width="1.00" stroke-linecap="butt" stroke-linejoin="miter">
	<path stroke='black'  d='M62.2,305.0 L71.2,305.0 M615.0,305.0 L606.0,305.0  '/>	<g transform="translate(53.9,308.9)" stroke="none" fill="black" font-family="Arial" font-size="12.00"  text-anchor="end">
		<text><tspan font-family="Arial" > 7000</tspan></text>
	</g>
</g>
<g fill="none" color="black" stroke="currentColor" stroke-width="1.00" stroke-linecap="butt" stroke-linejoin="miter">
	<path stroke='black'  d='M62.2,255.9 L71.2,255.9 M615.0,255.9 L606.0,255.9  '/>	<g transform="translate(53.9,259.8)" stroke="none" fill="black" font-family="Arial" font-size="12.00"  text-anchor="end">
		<text><tspan font-family="Arial" > 7500</tspan></text>
	</g>
</g>
<g fill="none" color="black" stroke="currentColor" stroke-width="1.00" stroke-linecap="butt" stroke-linejoin="miter">
	<path stroke='black'  d='M62.2,206.9 L71.2,206.9 M615.0,206.9 L606.0,206.9  '/>	<g transform="translate(53.9,210.8)" stroke="none" fill="black" font-family="Arial" font-size="12.00"  text-anchor="end">
		<text><tspan font-family="Arial" > 8000</tspan></text>
	</g>
</g>
<g fill="none" color="black" stroke="currentColor" stroke-width="1.00" stroke-linecap="butt" stroke-linejoin="miter">
	<path stroke='black'  d='M62.2,157.9 L71.2,157.9 M615.0,157.9 L606.0,157.9  '/>	<g transform="translate(53.9,161.8)" stroke="none" fill="black" font-family="Arial" font-size="12.00"  text-anchor="end">
		<text><tspan font-family="Arial" > 8500</tspan></text>
	</g>
</g>
<g fill="none" color="black" stroke="currentColor" stroke-width="1.00" stroke-linecap="butt" stroke-linejoin="miter">
	<path stroke='black'  d='M62.2,108.9 L71.2,108.9 M615.0,108.9 L606.0,108.9  '/>	<g transform="translate(53.9,112.8)" stroke="none" fill="black" font-family="Arial" font-size="12.00"  text-anchor="end">
		<text><tspan font-family="Arial" > 9000</tspan></text>
	</g>
</g>
<g fill="none" color="black" stroke="currentColor" stroke-width="1.00" stroke-linecap="butt" stroke-linejoin="miter">
	<path stroke='black'  d='M62.2,59.9 L71.2,59.9 M615.0,59.9 L606.0,59.9  '/>	<g transform="translate(53.9,63.8)" stroke="none" fill="black" font-family="Arial" font-size="12.00"  text-anchor="end">
		<text><tspan font-family="Arial" > 9500</tspan></text>
	</g>
</g>
<g fill="none" color="black" stroke="currentColor" stroke-width="1.00" stroke-linecap="butt" stroke-linejoin="miter">
	<path stroke='black'  d='M62.2,392.0 L62.2,383.0 M62.2,18.1 L62.2,27.1  '/>	<g transform="translate(62.2,413.9)" stroke="none" fill="black" font-family="Arial" font-size="12.00"  text-anchor="middle">
		<text><tspan font-family="Arial" > 0</tspan></text>
	</g>
</g>
<g fill="none" color="black" stroke="currentColor" stroke-width="1.00" stroke-linecap="butt" stroke-linejoin="miter">
	<path stroke='black'  d='M118.0,392.0 L118.0,383.0 M118.0,18.1 L118.0,27.1  '/>	<g transform="translate(118.0,413.9)" stroke="none" fill="black" font-family="Arial" font-size="12.00"  text-anchor="middle">
		<text><tspan font-family="Arial" > 10</tspan></text>
	</g>
</g>
<g fill="none" color="black" stroke="currentColor" stroke-width="1.00" stroke-linecap="butt" stroke-linejoin="miter">
	<path stroke='black'  d='M173.9,392.0 L173.9,383.0 M173.9,18.1 L173.9,27.1  '/>	<g transform="translate(173.9,413.9)" stroke="none" fill="black" font-family="Arial" font-size="12.00"  text-anchor="middle">
		<text><tspan font-family="Arial" > 20</tspan></text>
	</g>
</g>
<g fill="none" color="black" stroke="currentColor" stroke-width="1.00" stroke-linecap="butt" stroke-linejoin="miter">
	<path stroke='black'  d='M229.7,392.0 L229.7,383.0 M229.7,18.1 L229.7,27.1  '/>	<g transform="translate(229.7,413.9)" stroke="none" fill="black" font-family="Arial" font-size="12.00"  text-anchor="middle">
		<text><tspan font-family="Arial" > 30</tspan></text>
	</g>
</g>
<g fill="none" color="black" stroke="currentColor" stroke-width="1.00" stroke-linecap="butt" stroke-linejoin="miter">
	<path stroke='black'  d='M285.6,392.0 L285.6,383.0 M285.6,18.1 L285.6,27.1  '/>	<g transform="translate(285.6,413.9)" stroke="none" fill="black" font-family="Arial" font-size="12.00"  text-anchor="middle">
		<text><tspan font-family="Arial" > 40</tspan></text>
	</g>
</g>
<g fill="none" color="black" stroke="currentColor" stroke-width="1.00" stroke-linecap="butt" stroke-linejoin="miter">
	<path stroke='black'  d='M341.4,392.0 L341.4,383.0 M341.4,18.1 L341.4,27.1  '/>	<g transform="translate(341.4,413.9)" stroke="none" fill="black" font-family="Arial" font-size="12.00"  text-anchor="middle">
		<text><tspan font-family="Arial" > 50</tspan></text>
	</g>
</g>
<g fill="none" color="black" stroke="currentColor" stroke-width="1.00" stroke-linecap="butt" stroke-linejoin="miter">
	<path stroke='black'  d='M397.2,392.0 L397.2,383.0 M397.2,18.1 L397.2,27.1  '/>	<g transform="translate(397.2,413.9)" stroke="none" fill="black" font-family="Arial" font-size="12.00"  text-anchor="middle">
		<text><tspan font-family="Arial" > 60</tspan></text>
	</g>
</g>
<g fill="none" color="black" stroke="currentColor" stroke-width="1.00" stroke-linecap="butt" stroke-linejoin="miter">
	<path stroke='black'  d='M453.1,392.0 L453.1,383.0 M453.1,18.1 L453.1,27.1  '/>	<g transform="translate(453.1,413.9)" stroke="none" fill="black" font-family="Arial" font-size="12.00"  text-anchor="middle">
		<text><tspan font-family="Arial" > 70</tspan></text>
	</g>
</g>
<g fill="none" color="black" stroke="currentColor" stroke-width="1.00" stroke-linecap="butt" stroke-linejoin="miter">
	<path stroke='black'  d='M508.9,392.0 L508.9,383.0 M508.9,18.1 L508.9,27.1  '/>	<g transform="translate(508.9,413.9)" stroke="none" fill="black" font-family="Arial" font-size="12.00"  text-anchor="middle">
		<text><tspan font-family="Arial" > 80</tspan></text>
	</g>
</g>
<g fill="none" color="black" stroke="currentColor" stroke-width="1.00" stroke-linecap="butt" stroke-linejoin="miter">
	<path stroke='black'  d='M564.7,392.0 L564.7,383.0 M564.7,18.1 L564.7,27.1  '/>	<g transform="translate(564.7,413.9)" stroke="none" fill="black" font-family="Arial" font-size="12.00"  text-anchor="middle">
		<text><tspan font-family="Arial" > 90</tspan></text>
	</g>
</g>
<g fill="none" color="black" stroke="currentColor" stroke-width="1.00" stroke-linecap="butt" stroke-linejoin="miter">
</g>
<g fill="none" color="black" stroke="currentColor" stroke-width="1.00" stroke-linecap="butt" stroke-linejoin="miter">
	<path stroke='black'  d='M62.2,18.1 L62.2,392.0 L615.0,392.0 L615.0,18.1 L62.2,18.1 Z  '/></g>
<g fill="none" color="black" stroke="currentColor" stroke-width="1.00" stroke-linecap="butt" stroke-linejoin="miter">
</g>
	<g id="gnuplot_plot_1" ><title>pages+cached+noexternal</title>
<g fill="none" color="black" stroke="currentColor" stroke-width="1.00" stroke-linecap="butt" stroke-linejoin="miter">
	<g transform="translate(437.8,431.9)" stroke="none" fill="black" font-family="Arial" font-size="12.00"  text-anchor="end">
		<text><tspan font-family="Arial" >pages+cached+noexternal</tspan></text>
	</g>
</g>
<g fill="none" color="black" stroke="currentColor" stroke-width="1.00" stroke-linecap="butt" stroke-linejoin="miter">
	<path stroke='rgb(148,   0, 211)'  d='M446.1,428.0 L488.3,428.0 M62.2,34.8 L67.8,107.9 L73.4,34.8 L79.0,115.5 L84.5,107.8 L90.1,107.6
		L95.7,115.3 L101.3,34.2 L106.9,27.1 L112.5,27.8 L118.0,33.9 L123.6,26.7 L129.2,107.7 L134.8,108.3
		L140.4,116.1 L146.0,117.1 L151.5,34.5 L157.1,25.4 L162.7,28.9 L168.3,33.5 L173.9,35.3 L179.5,25.6
		L185.0,108.0 L190.6,116.1 L196.2,34.4 L201.8,115.0 L207.4,34.6 L213.0,34.7 L218.5,33.2 L224.1,117.1
		L229.7,108.0 L235.3,115.0 L240.9,107.9 L246.5,115.6 L252.1,26.6 L257.6,115.4 L263.2,35.2 L268.8,107.7
		L274.4,108.3 L280.0,34.3 L285.6,108.9 L291.1,35.1 L296.7,115.4 L302.3,115.7 L307.9,109.4 L313.5,108.4
		L319.1,33.4 L324.6,116.4 L330.2,116.8 L335.8,108.4 L341.4,34.2 L347.0,34.1 L352.6,115.0 L358.1,27.8
		L363.7,33.4 L369.3,109.2 L374.9,33.7 L380.5,115.0 L386.1,26.9 L391.6,34.0 L397.2,115.9 L402.8,26.3
		L408.4,25.3 L414.0,114.2 L419.6,117.1 L425.1,27.4 L430.7,107.5 L436.3,33.6 L441.9,115.9 L447.5,35.0
		L453.1,109.1 L458.7,109.5 L464.2,34.6 L469.8,115.9 L475.4,115.5 L481.0,35.4 L486.6,26.3 L492.2,115.4
		L497.7,108.7 L503.3,108.2 L508.9,26.7 L514.5,27.5 L520.1,115.5 L525.7,109.3 L531.2,107.2 L536.8,28.0
		L542.4,108.5 L548.0,34.6 L553.6,115.8 L559.2,108.7 L564.7,115.3 L570.3,116.2 L575.9,115.7 L581.5,108.9
		L587.1,108.8 L592.7,115.7 L598.2,107.9 L603.8,34.6 L609.4,26.9 L615.0,108.0  '/></g>
	</g>
	<g id="gnuplot_plot_2" ><title>pages+cached+noexternal+nofonts</title>
<g fill="none" color="black" stroke="currentColor" stroke-width="1.00" stroke-linecap="butt" stroke-linejoin="miter">
	<g transform="translate(437.8,449.9)" stroke="none" fill="black" font-family="Arial" font-size="12.00"  text-anchor="end">
		<text><tspan font-family="Arial" >pages+cached+noexternal+nofonts</tspan></text>
	</g>
</g>
<g fill="none" color="black" stroke="currentColor" stroke-width="1.00" stroke-linecap="butt" stroke-linejoin="miter">
	<path stroke='rgb(  0, 158, 115)'  d='M446.1,446.0 L488.3,446.0 M62.2,377.2 L67.8,369.4 L73.4,295.8 L79.0,377.2 L84.5,377.4 L90.1,369.6
		L95.7,370.2 L101.3,297.2 L106.9,377.2 L112.5,369.6 L118.0,289.1 L123.6,369.8 L129.2,370.0 L134.8,369.9
		L140.4,296.2 L146.0,369.7 L151.5,288.5 L157.1,288.6 L162.7,288.7 L168.3,371.0 L173.9,369.8 L179.5,376.3
		L185.0,368.8 L190.6,289.4 L196.2,296.2 L201.8,377.6 L207.4,289.0 L213.0,370.0 L218.5,369.7 L224.1,288.8
		L229.7,369.7 L235.3,370.4 L240.9,289.2 L246.5,377.3 L252.1,370.3 L257.6,369.9 L263.2,369.9 L268.8,377.1
		L274.4,369.3 L280.0,369.4 L285.6,369.7 L291.1,369.6 L296.7,370.6 L302.3,296.1 L307.9,295.8 L313.5,370.3
		L319.1,369.8 L324.6,369.2 L330.2,369.9 L335.8,370.5 L341.4,370.3 L347.0,296.2 L352.6,369.8 L358.1,377.3
		L363.7,371.1 L369.3,289.7 L374.9,370.4 L380.5,370.9 L386.1,369.6 L391.6,370.0 L397.2,377.4 L402.8,369.7
		L408.4,369.4 L414.0,369.9 L419.6,369.9 L425.1,370.6 L430.7,370.5 L436.3,288.3 L441.9,369.5 L447.5,296.4
		L453.1,369.9 L458.7,369.7 L464.2,288.6 L469.8,377.6 L475.4,370.9 L481.0,295.7 L486.6,370.8 L492.2,384.8
		L497.7,370.0 L503.3,296.2 L508.9,288.2 L514.5,289.0 L520.1,370.1 L525.7,370.0 L531.2,383.9 L536.8,369.5
		L542.4,370.9 L548.0,369.8 L553.6,289.0 L559.2,370.0 L564.7,369.7 L570.3,369.5 L575.9,295.7 L581.5,369.4
		L587.1,369.8 L592.7,370.1 L598.2,288.8 L603.8,377.4 L609.4,288.6 L615.0,376.8  '/></g>
	</g>
	<g id="gnuplot_plot_3" ><title>score p10=2500</title>
<g fill="none" color="black" stroke="currentColor" stroke-width="1.00" stroke-linecap="butt" stroke-linejoin="miter">
	<g transform="translate(437.8,467.9)" stroke="none" fill="black" font-family="Arial" font-size="12.00"  text-anchor="end">
		<text><tspan font-family="Arial" >score p10=2500</tspan></text>
	</g>
</g>
<g fill="none" color="black" stroke="currentColor" stroke-width="1.00" stroke-linecap="butt" stroke-linejoin="miter">
	<path stroke='rgb( 86, 180, 233)'  d='M446.1,464.0 L488.3,464.0  '/></g>
	</g>
	<g id="gnuplot_plot_4" ><title>score median=4000</title>
<g fill="none" color="black" stroke="currentColor" stroke-width="1.00" stroke-linecap="butt" stroke-linejoin="miter">
	<g transform="translate(437.8,485.9)" stroke="none" fill="black" font-family="Arial" font-size="12.00"  text-anchor="end">
		<text><tspan font-family="Arial" >score median=4000</tspan></text>
	</g>
</g>
<g fill="none" color="black" stroke="currentColor" stroke-width="1.00" stroke-linecap="butt" stroke-linejoin="miter">
	<path stroke='rgb(230, 159,   0)'  d='M446.1,482.0 L488.3,482.0  '/></g>
	</g>
<g fill="none" color="#FFFFFF" stroke="rgb(230, 159,   0)" stroke-width="2.00" stroke-linecap="butt" stroke-linejoin="miter">
</g>
<g fill="none" color="black" stroke="currentColor" stroke-width="2.00" stroke-linecap="butt" stroke-linejoin="miter">
</g>
<g fill="none" color="black" stroke="black" stroke-width="1.00" stroke-linecap="butt" stroke-linejoin="miter">
</g>
<g fill="none" color="black" stroke="currentColor" stroke-width="1.00" stroke-linecap="butt" stroke-linejoin="miter">
	<path stroke='black'  d='M62.2,18.1 L62.2,392.0 L615.0,392.0 L615.0,18.1 L62.2,18.1 Z  '/></g>
<g fill="none" color="black" stroke="currentColor" stroke-width="1.00" stroke-linecap="butt" stroke-linejoin="miter">
</g>
</g>
</svg>
